icons/icon-m-camera-flash-red-eye-screen.svg

<?xml version="1.0" encoding="utf-8"?>
<!-- Generator: Adobe Illustrator 16.0.0, SVG Export Plug-In . SVG Version: 6.00 Build 0)  -->
<!DOCTYPE svg PUBLIC "-//W3C//DTD SVG 1.1//EN" "http://www.w3.org/Graphics/SVG/1.1/DTD/svg11.dtd">
<svg version="1.1"
	 id="icon-m-camera-flash-red-eye-screen-layer" xmlns:dc="http://purl.org/dc/elements/1.1/" xmlns:cc="http://creativecommons.org/ns#" xmlns:rdf="http://www.w3.org/1999/02/22-rdf-syntax-ns#" xmlns:svg="http://www.w3.org/2000/svg" xmlns:sodipodi="http://sodipodi.sourceforge.net/DTD/sodipodi-0.dtd" xmlns:inkscape="http://www.inkscape.org/namespaces/inkscape" inkscape:version="0.48.3.1 r9886" sodipodi:docname="icon-m-camera-flash-red-eye-screen.svg"
	 xmlns="http://www.w3.org/2000/svg" xmlns:xlink="http://www.w3.org/1999/xlink" x="0px" y="0px" width="48px" height="48px"
	 viewBox="0 0 48 48" enable-background="new 0 0 48 48" xml:space="preserve">
<sodipodi:namedview  showgrid="false" inkscape:cy="24.130847" inkscape:cx="23.860606" inkscape:zoom="9.8390732" borderopacity="1" bordercolor="#666666" pagecolor="#ffffff" id="namedview3027" inkscape:current-layer="icon-m-camera-flash-red-eye-screen-layer" inkscape:pageshadow="2" inkscape:pageopacity="0" inkscape:window-maximized="1" inkscape:window-y="30" inkscape:window-x="0" inkscape:window-height="686" inkscape:window-width="1024" objecttolerance="10" guidetolerance="10" gridtolerance="10">
	</sodipodi:namedview>
<g id="icon-m-camera-flash-red-eye-screen" transform="matrix(1.2509129,0,0,1.2509129,3.9853936,3.9853936)">
	<rect id="rect3019" x="0" y="0" fill="none" width="32" height="32"/>
	<path id="path3021" inkscape:connector-curvature="0" fill="#FFFFFF" d="M28.475,8.996l0.012-0.032l-0.145-0.217h-0.025
		c-0.056-0.058-0.142-0.146-0.234-0.247c-0.264-0.282-6.572-6.942-13.587-6.942c-7.018,0-13.324,6.66-13.59,6.944
		c-0.165,0.176-0.303,0.32-0.303,0.32L0.489,8.937l0.043,0.104v0.071L0.6,9.182c0,0.001,0.141,0.144,0.304,0.317
		c0.266,0.285,6.572,6.945,13.59,6.945c7.016,0,13.323-6.66,13.587-6.943l0.235-0.248h0.03l0.142-0.225L28.475,8.996z M4.609,8.914
		C4.657,8.861,9.417,3.84,14.495,3.84c5.078,0,9.835,5.021,9.883,5.074L24.461,9c-0.025,0.028-0.053,0.059-0.082,0.088
		c-0.049,0.051-4.804,5.075-9.884,5.075c-5.079,0-9.838-5.024-9.885-5.072L4.527,9C4.553,8.974,4.581,8.943,4.609,8.914z"/>
	<path id="path3025" inkscape:connector-curvature="0" fill="#FFFFFF" d="M27.545,18h-3.131l-4.028,13.498h2.273l0.896-3.095h4.515
		l0.896,3.095H31.5L27.545,18z M23.988,26.693l1.844-6.67l1.827,6.699L23.988,26.693z"/>
</g>
<circle fill="#FF0000" cx="22.526" cy="15.245" r="4.25"/>
</svg>

<?xml version="1.0" encoding="UTF-8" standalone="no"?>
<!-- Generator: Adobe Illustrator 14.0.0, SVG Export Plug-In . SVG Version: 6.00 Build 43363)  -->

<svg
   xmlns:dc="http://purl.org/dc/elements/1.1/"
   xmlns:cc="http://creativecommons.org/ns#"
   xmlns:rdf="http://www.w3.org/1999/02/22-rdf-syntax-ns#"
   xmlns:svg="http://www.w3.org/2000/svg"
   xmlns="http://www.w3.org/2000/svg"
   xmlns:sodipodi="http://sodipodi.sourceforge.net/DTD/sodipodi-0.dtd"
   xmlns:inkscape="http://www.inkscape.org/namespaces/inkscape"
   version="1.1"
   id="icon-m-camera-flash-red-eye-screen-layer"
   x="0px"
   y="0px"
   width="48"
   height="48"
   viewBox="0 0 48 48"
   xml:space="preserve"
   inkscape:version="0.48.3.1 r9886"
   sodipodi:docname="icon-m-camera-flash-red-eye-screen.svg"><metadata
   id="metadata3031"><rdf:RDF><cc:Work
       rdf:about=""><dc:format>image/svg+xml</dc:format><dc:type
         rdf:resource="http://purl.org/dc/dcmitype/StillImage" /></cc:Work></rdf:RDF></metadata><defs
   id="defs3029" /><sodipodi:namedview
   pagecolor="#ffffff"
   bordercolor="#666666"
   borderopacity="1"
   objecttolerance="10"
   gridtolerance="10"
   guidetolerance="10"
   inkscape:pageopacity="0"
   inkscape:pageshadow="2"
   inkscape:window-width="1024"
   inkscape:window-height="686"
   id="namedview3027"
   showgrid="false"
   inkscape:zoom="9.8390732"
   inkscape:cx="23.860606"
   inkscape:cy="24.130847"
   inkscape:window-x="0"
   inkscape:window-y="30"
   inkscape:window-maximized="1"
   inkscape:current-layer="icon-m-camera-flash-red-eye-screen-layer" />
<g
   id="icon-m-camera-flash-red-eye-screen"
   transform="matrix(1.2509129,0,0,1.2509129,3.9853936,3.9853936)">
	<rect
   style="fill:none"
   width="32"
   height="32"
   id="rect3019"
   x="0"
   y="0" />
	<path
   style="fill:#ffffff"
   d="M 28.475,8.996 28.488,8.964 28.343,8.747 H 28.317 C 28.261,8.689 28.176,8.601 28.083,8.5 27.819,8.218 21.512,1.558 14.496,1.558 7.478,1.558 1.172,8.218 0.906,8.502 0.741,8.678 0.603,8.822 0.603,8.822 L 0.489,8.937 0.532,9.041 V 9.112 L 0.6,9.182 c 0,10e-4 0.141,0.144 0.304,0.317 0.266,0.285 6.572,6.945 13.59,6.945 7.016,0 13.323,-6.66 13.587,-6.943 l 0.235,-0.248 h 0.03 L 28.488,9.028 28.475,8.996 z M 4.609,8.914 C 4.657,8.861 9.417,3.84 14.495,3.84 c 5.078,0 9.835,5.021 9.883,5.074 L 24.461,9 C 24.436,9.028 24.408,9.059 24.379,9.088 24.33,9.139 19.576,14.163 14.495,14.163 9.416,14.163 4.657,9.139 4.61,9.091 L 4.527,9 C 4.553,8.974 4.581,8.943 4.609,8.914 z"
   id="path3021"
   inkscape:connector-curvature="0" />
	<path
   style="fill:#ffffff"
   d="m 14.995,5.184 v 4.824 h -4.223 c 0.444,1.638 1.94,2.847 3.723,2.847 2.129,0 3.857,-1.725 3.857,-3.853 C 18.353,7.043 16.888,5.43 14.995,5.184 z"
   id="path3023"
   inkscape:connector-curvature="0" />
	<path
   style="fill:#ffffff"
   d="m 27.545,18 h -3.131 l -4.028,13.498 h 2.273 l 0.896,-3.095 h 4.516 l 0.896,3.095 H 31.5 L 27.545,18 z m -3.557,8.693 1.844,-6.67 1.827,6.699 -3.671,-0.029 z"
   id="path3025"
   inkscape:connector-curvature="0" />
</g>
</svg>
